X:154
T: Jung Franzosenblut (2-56) S. 177
N: P0929
O: Lothringen
S: PINCK, Louis: Verklingende Weisen, Bd 2, Metz 1928]
R: Soldatenlied]
M: 4/4
L: 1/8
K: C
G2 | c3GGFED | C2E2E2
E2 | D2c2c2BA | G2^F2G2
GF | E2EEEFGA | G2FEF2
FE | D2D2D2CE | G3GG2G2 | G4
G3c | c3GAGFE | A4
c3d | c3GAGFD | C4z2

